X: 35
T: Reflection Rag
C: Scott Joplin
%%abc-version 2.0
%%abcx-abcm2ps-target-version 5.9.1 (29 Sep 2008)
%%abc-creator hum2abc beta
%%abcx-conversion-date 2021/07/20 09:00:56
%%abc-copyright 2021 Craig Stuart Sapp
%%abc-edited-by Craig Stuart Sapp
%%abc-edited-by Craig Stuart Sapp
%%abcx-initial-encoding-date 2005/02/02
%%humdrum-veritas 1942365957
%%humdrum-veritas-data 2833881435
%%removed 0's from note length
%%linebreak <none>
%%barnumbers 0
L: 1/8
M: 2/4
N: Derived from reflection.krn
Q: "Slow March Tempo." 1/4=100
%%staves {1 2}
V: 1 clef=treble
V: 2 clef=bass
K: Bb
[V:1] FG/_G/ F z | 
[V:2] F,G,/_G,/ F, z | 
[V:1] FG/_G/ F z | 
[V:2] F,G,/_G,/ F, z | 
[V:1] FF/G/ A/B/=B/c/ | 
[V:2] F,F,/G,/ A,/B,/=B,/C/ | 
[V:1] F2!accent![fAF] z ]|:  
[V:2] F,2z/ !accent![F,/F,,/]!accent![G,/G,,/]!accent![A,/A,,/] ]|:  
[V:1] z/ d/c/B/ d/fg/ | 
[V:2] !accent![B,B,,][DB,F,] F,,[DB,F,] | 
[V:1] f/b/d'/[f'/f/]- [f'/f/]d'/c'/b/ | 
[V:2] B,,[DB,F,] F,,[DB,F,] | 
[V:1] z/ ^f/g/e/ b/g/=f/e/ | 
[V:2] [E,E,,][EB,G,] [G,G,,][EB,G,] | 
[V:1] d2c/e/d/c/ | 
[V:2] [B,B,,][DB,F,][E2A,2F,2] | 
[V:1] z/ d/c/B/ d/fg/ | 
[V:2] B,,[DB,F,] F,,[DB,F,] | 
[V:1] f/b/d'/[f'/f/]- [f'/f/]d'/c'/b/ | 
[V:2] B,,[DB,F,] D,[DB,F,] | 
[V:1] x2d'/c'b/ & z/ =e/g/b/=e2 | 
[V:2] C,[=ECB,] C,[ECB,] | 
[V:1] [a_e][g/e/][f/e/]- [f/e/][e3/c3/] | 
[V:2] [F,F,,][G,G,,] [A,A,,][F,F,,] | 
[V:1] z/ d/c/B/ d/fg/ | 
[V:2] [B,B,,][DB,F,] F,,[DB,F,] | 
[V:1] f/b/d'/[f'/f/]- [f'/f/]d'/c'/b/ | 
[V:2] B,,[DB,F,] F,,[DB,F,] | 
[V:1] z/ ^f/g/e/ b/g/=f/e/ | 
[V:2] [E,E,,][EB,G,] [G,G,,][EB,G,] | 
[V:1] d2cE | 
[V:2] z2EC & [B,B,,][DB,F,][A,2F,2] | 
[V:1] D/E/=E/F/ GF | 
[V:2] B,/C/^C/D/ _ED | 
[V:1] D/E/=E/F/ GF | 
[V:2] B,/C/^C/D/ _ED | 
[V:1] d/g/f/d/ F[cAE] |[1 
[V:2] [D2B,2F,2][EA,F,][F,F,,] | 
[V:1] [B3D3]z :|][2 
[V:2] [B,B,,][F,/F,,/][=E,/=E,,/] [F,/F,,/][^F,/^F,,/][G,/G,,/][A,/A,,/] :|]  
[V:1] [B3D3] | 
[V:2] [B,B,,]F,B,, | 
[V:1] z [I:setbarnb 22]]|: 
[V:2] [D,D,,] ]|:  
[V:1] B2-B/A/G/B/ | 
[V:2] [G,G,,][DB,G,] [DB,G,][D,D,,] | 
[V:1] z2^f/a/d' & Ad3 | 
[V:2] [^F,^F,,][DCA,F,] [DCA,F,][D,D,,] | 
[V:1] d2-d/c/A/c/ | 
[V:2] [^F,^F,,][DCA,F,] [DCA,F,][D,D,,] | 
[V:1] z2b/a/g & BG3 | 
[V:2] [G,G,,][DB,G,] [DB,G,][G,G,,] | 
[V:1] e2-e/d/c/A/ | 
[V:2] [CC,][ECG,] [A,A,,][^F,^F,,] | 
[V:1] B/d/g2[bgdB] | 
[V:2] [G,G,,][DB,G,] [DB,G,][G,G,,] | 
[V:1] !arpeggio![a^fdA][f2d2A2][=e^cAG] | 
[V:2] [A,2A,,2][A,,2A,,,2] | 
[V:1] [d2A2^F2]!accent![d'a^fd] z | 
[V:2] [D,2D,,2]!accent![D,D,,][D,D,,] | 
[V:1] B2-B/A/G/B/ | 
[V:2] [G,G,,][DB,G,] [DB,G,][D,D,,] | 
[V:1] z2^f/a/d' & Ad3 | 
[V:2] [^F,^F,,][DCA,F,] [DCA,F,][D,D,,] | 
[V:1] d2-d/c/A/c/ | 
[V:2] [^F,^F,,][DCA,F,] [DCA,F,][D,D,,] | 
[V:1] z2b/a/g & BG3 | 
[V:2] [G,G,,][DB,G,] [DB,G,][G,G,,] | 
[V:1] c2-c/B/A/c/ | 
[V:2] [E,E,,][CA,G,] [CA,G,][E,E,,] | 
[V:1] z2b/g/d/B/ & BG- G3/B/ | 
[V:2] [D,D,,][DB,G,] [DB,G,][DB,G,] | 
[V:1] Ad/c/ BA |[1 
[V:2] [D,D,,][DCA,^F,] [D,D,,][DCA,F,] | 
[V:1] G2A2 :|][2 
[V:2] [D2B,2G,2][DC^F,][D,D,,] :|]  
[V:1] G2AF ]|: 
[V:2] [D2B,2G,2][E2C2F,2] ]|:  
[V:1] [d2B2F2][g2^c2B2] | 
[V:2] B,/A,/G,/F,/ =E,/G,/B,/^C/ | 
[V:1] [fdB][=eB] [fB][dB] | 
[V:2] D^C D/F,/B,/_A,/ | 
[V:1] _e/g/f/e/ G/A/B/c/ & B2z2 | 
[V:2] G,2E,2 & G,[EB,] E,[EB,G,] | 
[V:1] x2f/A/c/e/ & d2[A2F2] | 
[V:2] B,,[DB,F,] C,/F,/A,/C/ | 
[V:1] [d2B2F2][g2^c2B2] | 
[V:2] B,/A,/G,/F,/ =E,/G,/B,/^C/ | 
[V:1] [fdB][=eB] [fB][bd] | 
[V:2] D^C D[G,G,,] | 
[V:1] a/^g/a/b/ a/A/f/=e/ | 
[V:2] [A,A,,][DA,F,] A,,[^CA,G,] | 
[V:1] d/f/=e/f/ _e/c/A/F/ | 
[V:2] [D2A,2F,2D,2][CC,][EA,F,] | 
[V:1] [d2B2F2][g2^c2B2] | 
[V:2] B,/A,/G,/F,/ =E,/G,/B,/^C/ | 
[V:1] [fdB][=eB] [fB][dB] | 
[V:2] D^C D/F,/B,/_A,/ | 
[V:1] _e/g/f/e/ G/A/B/c/ & B2z2 | 
[V:2] G,2E,2 & G,[EB,] E,[EB,G,] | 
[V:1] d2d/e/=e/f/ | 
[V:2] B,,[DB,F,] [F,F,,][DB,_A,] | 
[V:1] g/b/a/g/ B/c/d/e/ & B2B2 | 
[V:2] [E,E,,][EB,G,] [G,G,,][_G,_G,,] | 
[V:1] [f2d2B2][b2^c2B2] | 
[V:2] [F,F,,][DB,F,] [=E,=E,,][^CB,G,] | 
[V:1] [f/d/B/]^c/d/F/ [B=E][cA_E] |[1 
[V:2] [F,F,,][DB,F,] [G,G,,][F,F,,] | 
[V:1] [BD]F/G/ A/B/B/^c/ :|][2 
[V:2] [B,B,,] zz2 :|]  
[V:1] [B3D3]z ]|: 
[V:2] [B,B,,]F,B,, z ]|:  
[V:1]  [K:Eb] G/e/e/G/ A/e/=A/e/ & G>G A=A | 
[V:2]  [K:Eb] E,2F,^F, & E,[EB,]x2 | 
[V:1] x2f/g/f/d/ & B/c/d/e/A2 | 
[V:2] G,2B,,2 & G,[EB,] B,,[DB,] | 
[V:1] e>ex2 & G/G/G/e/ d_d | 
[V:2] E,2F,G, & E,[EB,]x2 | 
[V:1] c/B/A/G/ A/B/c/A/ | 
[V:2] A,2F,2 & A,[EC] F,[FC] | 
[V:1] c/=B/c/f/- f/g/f | 
[V:2] A,,[CA,] F,,[CA,] | 
[V:1] B/=A/B/e/- e/f/e | 
[V:2] G,,[B,G,] B,,[B,G,] | 
[V:1] A/G/A/c/- c/d/c/A/ | 
[V:2] F,[DB,] B,,[DB,A,] | 
[V:1] G2F^F | 
[V:2] E,2D2 & E,[EB,]B,2 | 
[V:1] G/e/e/G/ A/e/=A/e/ & G>G A=A | 
[V:2] E,2F,^F, & E,[EB,]x2 | 
[V:1] x2f/g/f/d/ & B/c/d/e/A2 | 
[V:2] G,2B,,2 & G,[EB,] B,,[DB,] | 
[V:1] e>ex2 & G/G/G/e/ d_d | 
[V:2] E,2F,G, & E,[EB,]x2 | 
[V:1] c/B/A/G/ A/B/c/A/ | 
[V:2] A,2F,2 & A,[EC] F,[FC] | 
[V:1] c/=B/c/f/- f/g/f | 
[V:2] A,,[CA,] F,,[CA,] | 
[V:1] B/=A/B/e/- e/f/e | 
[V:2] G,,[B,G,] B,,[B,G,] | 
[V:1] A/G/A/c/- c/B/A/F/ |[1 
[V:2] F,[DB,] B,,[DB,A,] | 
[V:1] E2E/D/E/F/ :|][2 
[V:2] E,2[B,2G,2] & E,[B,G,]z2 :|]  
[V:1] E2-E[b/B/][c'/c/] ]|: 
[V:2] E,[B,G,] G,_G, ]|:  
[V:1] [d'bd][c'/a/c/][a/f/A/]- [a/f/A/][d'/d/][c'/c/][b/B/] | 
[V:2] F,[DB,A,] B,,[DB,A,] | 
[V:1] [a2f2A2]-[afA][a/A/][b/B/] | 
[V:2] D,[DB,A,] B,,[DB,A,] | 
[V:1] [c'gc][b/g/B/][g/e/G/]- [g/e/G/][c'/c/][b/B/][a/A/] | 
[V:2] E,[EB,G,] B,,[EB,G,] | 
[V:1] [g2e2G2]-[geG]B | 
[V:2] E,[EB,G,] B,,[EB,G,] | 
[V:1] d/fe/ d/f/c'/[b/a/d/]- | 
[V:2] F,[DB,A,] B,,[DB,A,] | 
[V:1] [b2a2d2]-[bad]B | 
[V:2] F,2A,2 & F,[DB,] A,[DB,] | 
[V:1] e/gf/ e/g/c'/[b/g/e/]- | 
[V:2] G,2B,,2 & G,[EB,] B,,[EB,G,] | 
[V:1] [b2g2e2]-[bge][b/B/][c'/c/] | 
[V:2] E,[EB,G,] G,_G, | 
[V:1] [d'bd][c'/a/c/][a/f/A/]- [a/f/A/][d'/d/][c'/c/][b/B/] | 
[V:2] F,[DB,A,] B,,[DB,A,] | 
[V:1] [a2f2A2]-[afA][a/A/][b/B/] | 
[V:2] D,[DB,A,] B,,D | 
[V:1] [c'gc][b/g/B/][g/e/G/]- [g/e/G/][c'/c/][b/B/][a/A/] | 
[V:2] E,[EB,G,] B,,[EB,G,] | 
[V:1] [g2e2G2]-[geG]g | 
[V:2] E,[EB,G,] B,,[EB,G,] | 
[V:1] g/fg/ a/b/c'/f/- | 
[V:2] [A,A,,][FCA,] [F,F,,][FCA,] | 
[V:1] f/e/d/e/ g/bg/ | 
[V:2] [G,G,,][EB,G,] [B,B,,][EB,G,] | 
[V:1] a/b/c'/a/- a/d/b |[1 
[V:2] F,[DB,A,] B,,[DB,A,] | 
[V:1] e2-e[b/B/][c'/c/] :|][2 
[V:2] E,2x2 & E,[EB,G,] G,_G, :|]  
[V:1] e2[e'ge] z |]  
[V:2] [EB,G,E,][B,B,,][E,E,,] z |]  


